X: 1
T: Coming Home From The Bog
M: 4/4
L: 1/8
R: reel
K: Amaj
|:AF|E2EF ABcA|dAcA BAFA|E2EF ABcA|BAFG A2:|
AB|ce~e2 fecd|e2cA BAFE|ce~e2 fecd|efed cAAB|
ce~e2 fecd|e2cA BAFE|~a3e faaf|ecBc A2||
